img/icons/icon-lock.svg

<svg fill="none" height="24" viewBox="0 0 24 24" width="24" xmlns="http://www.w3.org/2000/svg"><g stroke="#98bff9" stroke-linecap="round" stroke-linejoin="round" stroke-width="2"><path d="m19 11h-14c-1.10457 0-2 .8954-2 2v7c0 1.1046.89543 2 2 2h14c1.1046 0 2-.8954 2-2v-7c0-1.1046-.8954-2-2-2z"/><path d="m7 11v-4c0-1.32608.52678-2.59785 1.46447-3.53553.93768-.93769 2.20943-1.46447 3.53553-1.46447s2.5979.52678 3.5355 1.46447c.9377.93768 1.4645 2.20945 1.4645 3.53553v4"/></g></svg>

<svg width="24" height="24" viewBox="0 0 24 24" fill="none" xmlns="http://www.w3.org/2000/svg">
<path d="M19 11H5C3.89543 11 3 11.8954 3 13V20C3 21.1046 3.89543 22 5 22H19C20.1046 22 21 21.1046 21 20V13C21 11.8954 20.1046 11 19 11Z" stroke="#98BFF9" stroke-width="2" stroke-linecap="round" stroke-linejoin="round"/>
<path d="M7 11V7C7 5.67392 7.52678 4.40215 8.46447 3.46447C9.40215 2.52678 10.6739 2 12 2C13.3261 2 14.5979 2.52678 15.5355 3.46447C16.4732 4.40215 17 5.67392 17 7V11" stroke="#98BFF9" stroke-width="2" stroke-linecap="round" stroke-linejoin="round"/>
</svg>
